X:1
T:Title
%%score { ( 1 4 ) | ( 2 3 ) }
L:1/8
Q:1/4=92
M:6/8
K:G
V:1 treble nm="Grand Piano"
V:4 treble 
V:2 treble 
V:3 treble 
V:1
 B2 B _B=Bc | B2 A G3 | D3 [^CE]3 | [CF]6 | [Fc]2 [Fc] Bc[Fd] | [Fc]2 [B,FB] [CFA]3 | .F3 .A3 | %7
w: I.~H.~Meredith * * * *|||||||
 B6 | B2 B ABc | B2 A G3 | d3 G3 | c6 | A2 A BBB | c2 B A3 | a2 a bbb | c'2 b a3 | %16
w: |||||||||
 [Gd]2 [GB] [Gd]2 [GB] | [Fc]3 [CDF]3 | [B,DG]6 | B3 z3 | ^D6[K:bass] | %21
w: |||||
 z B,[K:treble][G,B,E] G-[DG]A | B3 z3 | c3 z3 | B3 z3 | [^CG]2 [CE] [CF]2 [CG] | B2 A F2 D | %27
w: ||||||
 B3 z3 | ^D6[K:bass] | z B,[K:treble][B,DG] B-[GB][GBd] | d-[Bd-][Bd] z A[EA] | c3 .d3 | .d3 .c3 | %33
w: ||||||
 B3 A3 | G6 |] %35
w: ||
V:2
 [G,DG]2 [G,DG] [G,G]-[G,DG][G,EG] | [G,DG]2[K:bass] [G,CD] [G,B,D]3 | [B,,G,]3 [_B,,G,]3 | %3
 [A,,D,A,]6 | z3 .^G,3 | [D,A,]2 D, D,3 | D,2 E, F,2 D, | [G,DG]6 | %8
 [G,DG]2 [G,DG] [G,G]-[G,DG][G,EG] | [G,DG]2 [G,CE] [G,B,E]3 | [G,B,=F]3 [B,DF]3 | [CE]6 | %12
 [CEG]2 [CEG] [B,EG][B,EG][B,EG] | [A,EG]2 [B,EG] [CEG]3 | [c^dg]2 [cdg] [Bdg][Bdg][Bdg] | %15
 [A^dg]2 [Bdg] [cdg]3 | [D,B,]2 [D,D] [D,B,]2 [D,D] | [D,A,]3 D,3 | G,6 | z [B,D][B,D] [D,G,B,]3 | %20
 [G,_B,]G,G, .G,3 | [G,B,]G,E, z B,[K:treble][A,CDF] | [DG]DD .D3 | z CC D,,3 | z CC D,,3 | %25
 [A,,E,]2 [A,,G,] [A,,F,]2 [A,,E,] | [D,F,C]2 [D,F,C] [D,A,C]2 [D,F,C] | z [B,D][B,D] [D,G,B,]3 | %28
 [G,_B,]G,G, .G,3 | [G,B,]G,G, z[K:treble] DD | z EE [EA]E[K:bass]=G, | z DD z FD, | %32
 z G=F,, z DE, | z ^CC z =CC | [G,B,D][D,B,][B,,B,] .G,,3 |] %35
V:3
 z3 .^C3 | x2[K:bass] x4 | x6 | x6 | [D,A,]2 [D,A,] D,-[D,A,][D,B,] | x6 | x6 | x6 | z3 .^C3 | x6 | %10
 x6 | x6 | x6 | x6 | x6 | x6 | x6 | x6 | x6 | G,,3 z3 | E,6 | .D,3 .G,3[K:treble] | B,3 z3 | %23
 D,3 z3 | D,3 z3 | x6 | x6 | G,,3 z3 | E,6 | .D,3 .B,3[K:treble] | ^G,3 .A,3[K:bass] | F,3 .D,3 | %32
 .G,,3 .E,,3 | A,,3 D,3 | x6 |] %35
V:4
 x6 | x6 | x6 | x6 | z3 .F3 | x6 | [Dd]2- [DGd] [Dc]2- [DFc] | x6 | x6 | x6 | x6 | x6 | x6 | x6 | %14
 x6 | x6 | x6 | x6 | x6 | [B,DG]GG D3 | z[K:bass] _B,B, B,2 z/ (3:2:2z/ G,,/4 | %21
 .D3[K:treble] .[B,D]3 | z GG .[GBd]3 | [CF]FF [CF^G]3 | [CF]FF [CFA]3 | x6 | x6 | [B,DG]GG D3 | %28
 z[K:bass] _B,B, B,2 z/ (3:2:2z/ G,,/4 | .D3[K:treble] .[DG]3 | .[EB]3 c3 | [DA]AA [Fc]c[Fce] | %32
 [GB]B[DGB] [D^G]G[DGB] | [^CG]GG [=CF]FF | z DD .[B,D]3 |] %35

